X: 3347
T: Belll, The
R: reel
M: 4/4
K: Amajor
Bcdc ~F2EF|ABcA Bcdc|~F2ce ~f2ec|
Bcdc ~F2EF|ABcA BdcA|~F2 B/c/d edcA:|
|:Bcde f2fe|fac2 Bcdc|~F2ce ~f2ec|
Bcde f2fe|fac2 BdcA|~F2 B/c/d edcA:|
|:deBc- cAEF|~F2 A/B/c d2Bc-|cA~f2 e2 A/B/c|
deBc- cAEF|~F2 A/B/c dcBd|cEFA ~A2cA:|
|:~f2ef a2~f2|efc2 BcBA|F2Bc BAce|
~f2ef a2~f2|efc2 ~a2fe|faBA FcAF:|

